icon-themes/breeze_svg/cmd/lc_zoompage.svg

<svg viewBox="0 0 24 24" xmlns="http://www.w3.org/2000/svg"><path d="m4 4v1 3h1v-3h3v-1h-3zm8 0-2 2h4zm4 0v1h3v3h1v-3-1h-1zm-8 3v10h1 4l3-4v-6h-1-6zm1 1h6v5h-2v3h-4zm-3 2-2 2 2 2zm12 0v4l2-2zm-14 6v3 1h4v-1h-3v-3zm15 0v3h-3v1h4v-1-3zm-9 2 2 2 2-2z" fill="#4d4d4d"/></svg>

<svg xmlns="http://www.w3.org/2000/svg" viewBox="0 0 24 24">
 <path 
     style="fill:#4d4d4d" 
     d="M 4 4 L 4 5 L 4 8 L 5 8 L 5 5 L 8 5 L 8 4 L 5 4 L 4 4 z M 12 4 L 10 6 L 14 6 L 12 4 z M 16 4 L 16 5 L 19 5 L 19 8 L 20 8 L 20 5 L 20 4 L 19 4 L 16 4 z M 8 7 L 8 17 L 9 17 L 13 17 L 16 13 L 16 7 L 15 7 L 9 7 L 8 7 z M 9 8 L 15 8 L 15 13 L 13 13 L 13 16 L 9 16 L 9 8 z M 6 10 L 4 12 L 6 14 L 6 10 z M 18 10 L 18 14 L 20 12 L 18 10 z M 4 16 L 4 19 L 4 20 L 8 20 L 8 19 L 5 19 L 5 16 L 4 16 z M 19 16 L 19 19 L 16 19 L 16 20 L 20 20 L 20 19 L 20 16 L 19 16 z M 10 18 L 12 20 L 14 18 L 10 18 z "
     />
 </svg>
